X: 37245
T: Sixpenny Money
R: jig
M: 6/8
K: Dmajor
fAA fAA|BAG FGE|DED AFA|dfd efg|
FAA FAA|BAG FGE|DED AFA|dfd e2 d:|
fef gfg|afd ede|fef gfg|afd e2 d|
fef gfg|afd fga|ABA AFA|dfd e2 d:|

